Yaru++/actions/16/snap-bounding-box-corners.svg

<svg viewBox="0 0 24 24" xmlns="http://www.w3.org/2000/svg">
  <path d="m4 4v3h1v1h1v-1h1v-1h1v-1h-1v-1zm13 0v1h-1v1h1v1h1v1h1v-1h1v-3zm-12 1h1v1h-1zm5 0v1h1v-1zm3 0v1h1v-1zm5 0h1v1h-1zm-13 5v1h1v-1zm13 0v1h1v-1zm-13 3v1h1v-1zm13 0v1h1v-1zm-13 3v1h-1v3h3v-1h1v-1h-1v-1h-1v-1zm0 2h1v1h-1zm5 0v1h1v-1zm3 0v1h1v-1z" fill="#808080"/>
  <path d="m16 16v4h4v-4zm1 1h2v2h-2z" fill="#0084ff"/>
</svg>

<svg xmlns="http://www.w3.org/2000/svg" viewBox="0 0 24 24">
 <defs>
  <style id="current-color-scheme" type="text/css">
   .ColorScheme-Text { color:#808080; } .ColorScheme-Highlight { color:#1d99f3; }
  </style>
 </defs>
 <path style="fill:currentColor" class="ColorScheme-Text" d="M 4 4 L 4 7 L 5 7 L 5 8 L 6 8 L 6 7 L 7 7 L 7 6 L 8 6 L 8 5 L 7 5 L 7 4 L 4 4 z M 17 4 L 17 5 L 16 5 L 16 6 L 17 6 L 17 7 L 18 7 L 18 8 L 19 8 L 19 7 L 20 7 L 20 4 L 17 4 z M 5 5 L 6 5 L 6 6 L 5 6 L 5 5 z M 10 5 L 10 6 L 11 6 L 11 5 L 10 5 z M 13 5 L 13 6 L 14 6 L 14 5 L 13 5 z M 18 5 L 19 5 L 19 6 L 18 6 L 18 5 z M 5 10 L 5 11 L 6 11 L 6 10 L 5 10 z M 18 10 L 18 11 L 19 11 L 19 10 L 18 10 z M 5 13 L 5 14 L 6 14 L 6 13 L 5 13 z M 18 13 L 18 14 L 19 14 L 19 13 L 18 13 z M 5 16 L 5 17 L 4 17 L 4 20 L 7 20 L 7 19 L 8 19 L 8 18 L 7 18 L 7 17 L 6 17 L 6 16 L 5 16 z M 5 18 L 6 18 L 6 19 L 5 19 L 5 18 z M 10 18 L 10 19 L 11 19 L 11 18 L 10 18 z M 13 18 L 13 19 L 14 19 L 14 18 L 13 18 z"/>
 <path style="fill:currentColor" class="ColorScheme-Highlight" d="M 16 16 L 16 20 L 20 20 L 20 16 L 16 16 z M 17 17 L 19 17 L 19 19 L 17 19 L 17 17 z"/>
</svg>
